X:1
T:Title
%%score { ( 1 3 ) | 2 }
L:1/8
Q:1/4=132
M:6/4
K:Ab
V:1 treble nm="Grand Piano"
V:3 treble 
V:2 bass 
V:1
 [Ec]2 [Fc]2 [Cc]2 [Ec]2 [Fc]2 [Ac]2 | z6 [Gd]6 | [Gd]2 [Bd]2 [Fd]2 [Gd]2 [Bd]2 [Gd]2 | [Ec]12 | %4
w: Mrs.~J.~I.~McClelland * * * * *||||
 [Ec]2 [Fc]2 [Cc]2 [Ec]2 [Fc]2 [Ac]2 | [Ac]2 [GB]2 [_G=A]2 B4- [EB]2 | %6
w: ||
 [=DB]2 [B,DF]2 [B,DG]2 [DA]2 G2 F2 | E12 | [CE]2 [DF]2 [B,G]2 [CA]2 [DB]2 [Ec]2 | %9
w: |||
 [Fd]2 [Ge]2 [Fd]2 c6 | c2 B2 A2 c2 B2 [=DA]2 | B6 E6 | [CE]2 [DF]2 [B,G]2 [CA]2 [DB]2 [Ec]2 | %13
w: ||||
 e2 f2 e2 [Fd]6 | c2 _c2 =c2 [Ge]2 [Fd]2 [DB]2 | [CA]12 |] %16
w: |||
V:2
 A,,2 [E,A,]2 [E,A,]2 A,,2 [E,A,]2 [E,A,]2 | B,,2 [E,B,]2 [E,B,]2 B,,2 E,2 E,2 | %2
 E,,2 [E,B,]2 [E,B,]2 E,,2 [E,B,]2 [E,B,]2 | A,,2 E,2 E,2 A,,2 E,2 E,2 | %4
 A,,2 [E,A,]2 [E,A,]2 A,,2 [E,A,]2 [E,A,]2 | B,,2 B,2 B,2 B,,2 B,2 B,2 | %6
 B,,2 F,2 F,2 B,,2 [F,B,=D]2 [F,B,D]2 | [E,G,]2 F,2 G,2 [E,G,]6 | %8
 [A,,A,]2 [A,,A,]2 [A,,A,]2 [A,,A,]2 [A,,A,]2 [A,,A,]2 | [E,B,]2 [E,B,]2 [E,G,]2 [A,E]6 | %10
 [A,E]2 [A,D]2 [A,C]2 [F,A,=D]2 [F,A,D]2 [B,,A,]2 | [E,G,D]12 | %12
 [A,,A,]2 [A,,A,]2 [A,,A,]2 [A,,A,]2 [A,,A,]2 [A,,A,]2 | [A,C_G]2 [A,CA]2 [A,CG]2[K:bass] [D,A,]6 | %14
 [E,A,E]2 [E,A,=D]2 [E,A,E]2 [E,B,]2 [E,B,]2 [E,G,]2 | [A,,A,]12 |] %16
V:3
 x12 | [Ad]2 [Gd]2 [Fd]2 z2 B,2 B,2 | x12 | z2 A,2 A,2 z2 A,2 A,2 | x12 | z6 .=G6 | x12 | %7
 z2 A,2 B,2 D6 | x12 | x12 | x12 | x12 | x12 | x12 | x12 | x12 |] %16

